src/icons/svg/point.svg

<?xml version="1.0" encoding="UTF-8"?>
<svg width="20px" height="20px" viewBox="0 0 20 20" version="1.1" xmlns="http://www.w3.org/2000/svg" xmlns:xlink="http://www.w3.org/1999/xlink">
    <!-- Generator: Sketch 57.1 (83088) - https://sketch.com -->
    <title>bonus-line</title>
    <desc>Created with Sketch.</desc>
    <g id="页面-1" stroke="none" stroke-width="1" fill="none" fill-rule="evenodd">
        <g id="侧边栏v2.8.0" transform="translate(-19.000000, -300.000000)" fill="#000000" fill-rule="nonzero">
            <g id="bonus-line" transform="translate(19.000000, 300.000000)">
                <path d="M9.825,19.64772 C7.201,19.64772 4.73572,18.62628 2.87972,16.77028 C1.02372,14.91428 0.00228,12.449 0.00228,9.825 C0.00228,7.201 1.02372,4.73572 2.87972,2.87972 C4.73572,1.02372 7.201,0.00228 9.825,0.00228 C12.449,0.00228 14.91428,1.02372 16.77028,2.87972 C18.62628,4.73572 19.64772,7.201 19.64772,9.825 C19.64772,12.449 18.62628,14.91428 16.77028,16.77028 C14.91428,18.62628 12.449,19.64772 9.825,19.64772 Z M9.825,1.22852 C7.52868,1.22852 5.3706,2.12196 3.74756,3.74756 C2.12196,5.3706 1.22852,7.52868 1.22852,9.825 C1.22852,12.12132 2.12196,14.2794 3.74756,15.90244 C5.3706,17.52548 7.53124,18.42148 9.825,18.42148 C12.11876,18.42148 14.2794,17.52804 15.90244,15.90244 C17.52548,14.2794 18.42148,12.11876 18.42148,9.825 C18.42148,7.53124 17.52804,5.3706 15.90244,3.74756 C14.2794,2.12196 12.12132,1.22852 9.825,1.22852 Z" id="形状"></path>
                <path d="M12.65892,14.6378 C12.513,14.6378 12.36708,14.60196 12.2314,14.53028 L9.7994,13.25284 L7.3674,14.53028 C7.05508,14.69412 6.68388,14.66852 6.39972,14.46116 C6.11556,14.2538 5.97476,13.9082 6.03364,13.5626 L6.497,10.85412 L4.53092,8.93668 C4.27748,8.69092 4.18788,8.32996 4.29796,7.9946 C4.40804,7.65924 4.6922,7.4186 5.04036,7.36996 L7.75652,6.97572 L8.97252,4.513 C9.12868,4.19556 9.44356,4.001 9.79684,4.001 C10.15012,4.001 10.465,4.19812 10.62116,4.513 L11.83716,6.97572 L14.55332,7.36996 C14.90148,7.42116 15.1882,7.65924 15.29572,7.99716 C15.4058,8.33252 15.3162,8.69348 15.06276,8.93924 L13.09668,10.85668 L13.5626,13.5626 C13.62148,13.91076 13.48324,14.2538 13.19652,14.46116 C13.0378,14.57892 12.84836,14.6378 12.65892,14.6378 L12.65892,14.6378 Z M5.8314,8.4938 L7.46724,10.08868 C7.68484,10.30116 7.78212,10.60324 7.73092,10.90276 L7.34436,13.15556 L9.36932,12.09316 C9.63812,11.95236 9.95812,11.95236 10.22436,12.09316 L12.24932,13.15556 L11.86276,10.90276 C11.81156,10.60324 11.9114,10.30116 12.12644,10.08868 L13.76228,8.4938 L11.49924,8.16612 C11.19972,8.1226 10.94116,7.93572 10.80548,7.66436 L9.7994,5.6138 L8.7882,7.66436 C8.65508,7.93572 8.39652,8.12516 8.09444,8.16868 L5.8314,8.4938 Z" id="形状"></path>
            </g>
        </g>
    </g>
</svg>

<svg width="20" height="20" xmlns="http://www.w3.org/2000/svg"><g><path d="M9.825 19.648A9.756 9.756 0 0 1 2.88 16.77 9.756 9.756 0 0 1 .002 9.825 9.756 9.756 0 0 1 2.88 2.88 9.756 9.756 0 0 1 9.825.002 9.756 9.756 0 0 1 16.77 2.88a9.756 9.756 0 0 1 2.878 6.945 9.756 9.756 0 0 1-2.878 6.945 9.756 9.756 0 0 1-6.945 2.878zm0-18.42a8.53 8.53 0 0 0-6.077 2.52 8.53 8.53 0 0 0-2.52 6.077 8.53 8.53 0 0 0 2.52 6.077 8.544 8.544 0 0 0 6.077 2.52 8.534 8.534 0 0 0 6.077-2.52 8.544 8.544 0 0 0 2.52-6.077 8.534 8.534 0 0 0-2.52-6.077 8.53 8.53 0 0 0-6.077-2.52z"/><path d="M12.659 14.638a.913.913 0 0 1-.428-.108L9.8 13.253 7.367 14.53a.918.918 0 1 1-1.334-.968l.464-2.708-1.966-1.917a.909.909 0 0 1-.233-.942.912.912 0 0 1 .742-.625l2.717-.394 1.216-2.463a.91.91 0 0 1 .824-.512c.353 0 .668.197.824.512l1.216 2.463 2.716.394c.348.051.635.29.743.627.11.336.02.696-.233.942l-1.966 1.918.466 2.706a.91.91 0 0 1-.366.898.901.901 0 0 1-.538.177zM5.83 8.494l1.636 1.595a.917.917 0 0 1 .264.814l-.387 2.253 2.025-1.063a.918.918 0 0 1 .855 0l2.025 1.063-.386-2.253a.924.924 0 0 1 .263-.814l1.636-1.595-2.263-.328a.923.923 0 0 1-.694-.502L9.8 5.614l-1.01 2.05a.918.918 0 0 1-.695.505l-2.263.325z"/></g></svg>
